!! George Gerswhin, "Shall We Dance" from
!! "Bumper Book of George Gerswhin,"
!! London: Chappell Music Ltd., 1987; pp.336-339
**kern
*M2/2
*MM[Moderato]
=1
4r
[4g
8g]
4.e
=2
4.f
[8dd
4dd]
4b
=3
4.cc
[8g
4g]
4e
=4
1f
=5
4r
[4g
8g]
4.b
=6
4.a
[8e
4e]
4d
=7
[1c
=8
2.c]
4r
=9
4r
[4g
8g]
4.e
=10
4.f
[8dd
4dd]
4b
=11
4.cc
[8g
4g]
4e
=12
1f#
=13
4r
4g
4g
4a
=14
4b
4b
2b
=15
4r
4a
4g
4b
=16
1f#
=17
4r
4g
4g
4a
=18
4b
4b
2b
=19
1r
=20
4b
4b
4a
4b
=21
[1cc
=22
2.cc]
4r
!! Refrain brightly and rhythmically
=23
4r
[4e
8e]
4.e
=24
1e
=25
4r
4d
4f
4a
=26
4.g#
[8g#
2g#]
=27
4r
[4e
8e]
4.e
=28
1e
=29
4r
4d
4f
4a
=30
1cc
=31
4r
[4dd
8dd]
4.a
=32
4.cc
[8cc
2cc]
=33
4r
[4cc
8cc]
4.g
=34
1b-
=35
4r
4b-
4b-
4b-
=36
4b-
4b-
8b-
8cc
4b-
=37
[1g
=38
1g]
=39
4r
[4e
8e]
4.e
=40
1e
=41
4r
4d
4f
4a
=42
4.g#
[8g#
2g#]
=43
4r
[4e
8e]
4.e
=44
1e
=45
4r
4d
4f
4b-
=46
1dd
=47
4r
4cc
4cc
4cc
=48
4dd
8dd
8dd
4dd
4dd
=49
4a
8a
8a
[2a
=50
1a]
=51
2cc
4ee-
[4dd
=52
4dd]
4f
2f
=53
[1f
=54
!! First ending
4f]
4r
2r
!! Refrain brightly and rhythmically
=23
4r
[4e
8e]
4.e
=24
1e
=25
4r
4d
4f
4a
=26
4.g#
[8g#
2g#]
=27
4r
[4e
8e]
4.e
=28
1e
=29
4r
4d
4f
4a
=30
1cc
=31
4r
[4dd
8dd]
4.a
=32
4.cc
[8cc
2cc]
=33
4r
[4cc
8cc]
4.g
=34
1b-
=35
4r
4b-
4b-
4b-
=36
4b-
4b-
8b-
8cc
4b-
=37
[1g
=38
1g]
=39
4r
[4e
8e]
4.e
=40
1e
=41
4r
4d
4f
4a
=42
4.g#
[8g#
2g#]
=43
4r
[4e
8e]
4.e
=44
1e
=45
4r
4d
4f
4b-
=46
1dd
=47
4r
4cc
4cc
4cc
=48
4dd
8dd
8dd
4dd
4dd
=49
4a
8a
8a
[2a
=50
1a]
=51
2cc
4ee-
[4dd
=52
4dd]
4f
2f
=53
[1f
=54
!! Second ending
4f]
4r
2r
====
*-
